X:123
T:La Tambourine. VWMLa.123
%%VWML:Anon2-3049-p70-0
F:http://www.vwml.org/record/Anon2/3049/p70
S:Anon. MS, late 18thC, Vaughan Williams Mem. Library
O:England;Yorkshire
Z:vmp/efdss.Simon Wilson. Reviewed PJH 2008.
M:2/4
L:1/16
Q:1/4=150
K:C
A2e2 e2d2|c/d/e3 c/d/e3|e2d2 c2B2|cdcB A2E2|\
A2e2 e2d2|c/d/e3 c/d/e3|cBA^G ABcd|e4 e4:|
|:B3c d2c2|B2e4 dc|B2e4 dc|B4 E2B2|\
cBA^G A2B2|cBA^G A2a2|e2A2 cBA^G|A4 A4:|
T:La Ball Elegante. VWMLa.124
T:Le Fete De Village,aka. VWMLa.124
R:Country-dance
S:Anon. MS, late 18thC, Vaughan Williams Mem. Library
N:The bars marked "drone on B" have a  B minim
O:England;Yorkshire
Z:vmp/efdss.Simon Wilson. Reviewed PJH 2008.
M:2/4
L:1/16
Q:1/4=130
K:E
"_drone on B"\
|:b2g2 g3f/g/|"_drone on B"a2g2f4|g2e2 e2e2|fedc B4|\
e2gb !turn!g3f/g/|"_drone on B"a2g2 f4|g2b2 e2fd|e4 e4:|
|:GBeB Acec|GBeB Acec|B2a4 g2|fefg f4|\
GBeB Gcec|GBeB Acec|e2g2 f2a2|e4 e4:|
